source/img/icon-bulb.svg

<svg width="26" height="29" viewBox="0 0 26 29" fill="none" xmlns="http://www.w3.org/2000/svg">
<path d="M10.8609 0C9.23173 0 7.96463 1.36758 7.96463 3.09985C7.96463 4.83212 9.23173 6.1997 10.8609 6.1997C12.49 6.1997 13.7571 4.83212 13.7571 3.09985C13.7571 1.36758 12.49 0 10.8609 0ZM10.8609 1.18524C11.8564 1.18524 12.5805 2.03314 12.5805 3.09985C12.5805 4.10275 11.7931 5.01447 10.8609 5.01447C9.86528 5.01447 9.14122 4.16657 9.14122 3.09985C9.14122 2.09696 9.91958 1.18524 10.8609 1.18524ZM0 24.89C0 26.0752 0.407282 27.0781 1.35761 27.8987C2.35319 28.7557 3.52978 28.6827 3.52978 28.6827H22.5363C23.3146 28.6827 24.3464 28.2998 25.161 27.224C26.0027 26.2211 25.9484 24.8535 25.9484 24.8535V7.53082C25.9484 7.09319 25.8398 6.92908 25.2062 6.92908C24.5727 6.92908 24.5184 7.2026 24.5184 7.5217V24.8444C24.5003 25.1453 24.446 25.9385 23.7762 26.5767C23.0431 27.2058 22.3281 27.1237 22.3281 27.1237C22.3281 27.1237 4.22668 27.1237 3.32161 27.0964C2.97769 27.0325 2.41654 26.9049 1.8735 26.1846C1.36666 25.4553 1.46622 24.5435 1.46622 24.5435V7.22083C1.46622 6.75585 1.2309 6.58263 0.742159 6.58263C0.25342 6.58263 0 6.75585 0 7.16613V24.89ZM16.2913 8.47901C15.2052 8.71605 14.1191 8.86193 12.0375 10.8495C9.95579 12.8553 8.41717 12.7641 6.87854 12.6729C5.33992 12.5818 3.71079 11.123 3.43927 10.7583C3.1044 10.4027 2.5342 10.6398 2.35319 10.8768C2.19932 11.1139 2.19932 11.5242 2.46179 11.8797C3.72889 13.065 4.90549 13.9767 7.16817 14.159C9.43085 14.3778 11.603 13.3476 13.0511 11.8797C14.4992 10.421 15.2233 10.1475 16.3094 9.96511C18.9341 9.54572 20.4727 10.5851 21.3778 11.2415C22.3734 12.3356 22.6449 12.0256 22.9164 11.7156C23.4595 10.9954 22.6901 10.4392 21.8303 9.801C20.0202 8.61576 18.3005 8.1599 16.3094 8.52459L16.2913 8.47901ZM7.24057 15.6816C6.06398 15.6816 5.15891 16.6845 5.15891 17.9609C5.15891 19.2373 6.06398 20.2402 7.24057 20.2402C8.41716 20.2402 9.32224 19.2373 9.32224 17.9609C9.32224 16.6845 8.41716 15.6816 7.24057 15.6816ZM19.0065 16.4657C17.4679 16.4657 16.2008 17.8333 16.2008 19.4744C16.2008 21.1155 17.4679 22.483 19.0065 22.483C20.5451 22.483 21.8122 21.1155 21.8122 19.4744C21.8122 17.8333 20.5451 16.4657 19.0065 16.4657ZM19.0065 17.9244C19.803 17.9244 20.4546 18.6265 20.4546 19.4744C20.4546 20.3405 19.803 21.0243 19.0065 21.0243C18.21 21.0243 17.5584 20.3223 17.5584 19.4744C17.5584 18.6082 18.21 17.9244 19.0065 17.9244Z" fill="white"/>
</svg>

<svg width="26" height="29" fill="none" xmlns="http://www.w3.org/2000/svg"><path d="M10.86 0C9.233 0 7.966 1.368 7.966 3.1s1.267 3.1 2.896 3.1 2.896-1.368 2.896-3.1S12.49 0 10.861 0Zm0 1.185c.996 0 1.72.848 1.72 1.915 0 1.003-.787 1.914-1.72 1.914-.995 0-1.719-.847-1.719-1.914 0-1.003.779-1.915 1.72-1.915ZM0 24.89c0 1.185.407 2.188 1.358 3.009.995.857 2.172.784 2.172.784h19.006c.779 0 1.81-.383 2.625-1.459.842-1.003.787-2.37.787-2.37V7.53c0-.438-.108-.602-.742-.602-.633 0-.688.274-.688.593v17.322c-.018.301-.072 1.095-.742 1.733-.733.629-1.448.547-1.448.547s-18.101 0-19.006-.028c-.344-.064-.905-.191-1.449-.911-.506-.73-.407-1.641-.407-1.641V7.22c0-.465-.235-.638-.724-.638S0 6.756 0 7.166V24.89ZM16.291 8.479c-1.086.237-2.172.383-4.254 2.37-2.081 2.006-3.62 1.915-5.158 1.824-1.54-.091-3.168-1.55-3.44-1.915-.335-.355-.905-.118-1.086.119-.154.237-.154.647.109 1.003 1.267 1.185 2.443 2.097 4.706 2.279 2.263.219 4.435-.811 5.883-2.28 1.448-1.458 2.172-1.731 3.258-1.914 2.625-.42 4.164.62 5.069 1.277.995 1.094 1.267.784 1.538.474.543-.72-.226-1.277-1.086-1.915-1.81-1.185-3.53-1.641-5.52-1.276l-.019-.046Zm-9.05 7.203c-1.177 0-2.082 1.002-2.082 2.279 0 1.276.905 2.28 2.082 2.28 1.176 0 2.081-1.004 2.081-2.28 0-1.276-.905-2.28-2.081-2.28Zm11.765.784c-1.538 0-2.805 1.367-2.805 3.008 0 1.642 1.267 3.009 2.805 3.009 1.54 0 2.806-1.367 2.806-3.009 0-1.64-1.267-3.008-2.806-3.008Zm0 1.458c.797 0 1.449.703 1.449 1.55 0 .866-.652 1.55-1.448 1.55-.797 0-1.449-.702-1.449-1.55 0-.866.652-1.55 1.448-1.55Z" fill="#fff"/></svg>
